icons/html.svg

<svg xmlns="http://www.w3.org/2000/svg" viewBox="0 0 16 16"><path fill="#f4bf75" d="m11.631 5.1.136-1.531H4.233l.4 4.672h5.216l-.187 2-1.679.459-1.67-.464L6.2 9.015H4.71l.19 2.433 3.085.875h.032v-.009l3.06-.866.423-4.76H6.014L5.886 5.1h5.744ZM2 1h12l-1.091 12.583L7.983 15l-4.892-1.417Z" data-iconColor="HTML"/></svg>

<!--
  - The MIT License (MIT)
  -
  - Copyright (c) 2015-2024 Elior "Mallowigi" Boukhobza
  -
  - Permission is hereby granted, free of charge, to any person obtaining a copy
  - of this software and associated documentation files (the "Software"), to deal
  - in the Software without restriction, including without limitation the rights
  - to use, copy, modify, merge, publish, distribute, sublicense, and/or sell
  - copies of the Software, and to permit persons to whom the Software is
  - furnished to do so, subject to the following conditions:
  -
  - The above copyright notice and this permission notice shall be included in all
  - copies or substantial portions of the Software.
  -
  - THE SOFTWARE IS PROVIDED "AS IS", WITHOUT WARRANTY OF ANY KIND, EXPRESS OR
  - IMPLIED, INCLUDING BUT NOT LIMITED TO THE WARRANTIES OF MERCHANTABILITY,
  - FITNESS FOR A PARTICULAR PURPOSE AND NONINFRINGEMENT. IN NO EVENT SHALL THE
  - AUTHORS OR COPYRIGHT HOLDERS BE LIABLE FOR ANY CLAIM, DAMAGES OR OTHER
  - LIABILITY, WHETHER IN AN ACTION OF CONTRACT, TORT OR OTHERWISE, ARISING FROM,
  - OUT OF OR IN CONNECTION WITH THE SOFTWARE OR THE USE OR OTHER DEALINGS IN THE
  - SOFTWARE.
  -
  -->

<svg  xmlns="http://www.w3.org/2000/svg" width="16px" height="16px" viewBox="0 0 16 16">
  <path fill="#F4BF75" data-iconColor="HTML"
        d="M11.631,5.1l0.136-1.531H4.233l0.4,4.672H9.849l-0.187,2L7.983,10.7l-1.67-.464L6.2,9.015H4.71L4.9,11.448l3.085,0.875H8.017V12.314l3.06-.866L11.5,6.688H6.014L5.886,5.1h5.744ZM2,1H14L12.909,13.583,7.983,15,3.091,13.583Z"
  />
</svg>
